suite-common/icons/assets/icons/bookmark.svg

<svg xmlns="http://www.w3.org/2000/svg" fill="none" viewBox="0 0 12 17">
  <path fill="#000" fill-rule="evenodd" d="M1.33.412a1.41 1.41 0 0 0-.946.761C.25 1.466.259.879.265 8.644L.27 15.69l.054.114a.75.75 0 0 0 .88.409c.081-.024.749-.431 2.448-1.493A324 324 0 0 1 6 13.26c.006 0 1.063.657 2.348 1.46 1.699 1.062 2.367 1.469 2.448 1.493.34.098.71-.068.869-.39l.065-.132.005-7.046c.006-7.839.017-7.191-.134-7.495a1.34 1.34 0 0 0-.631-.63c-.305-.15.049-.14-4.984-.138C2.131.383 1.45.387 1.33.412m8.925 7.595c.005 5.654.003 6.136-.027 6.125a204 204 0 0 1-1.973-1.225c-1.101-.688-1.979-1.224-2.031-1.24a1 1 0 0 0-.448 0c-.052.016-.93.552-2.031 1.24a204 204 0 0 1-1.973 1.225c-.029.011-.032-.474-.032-6.117 0-3.37.006-6.134.013-6.142.008-.007 1.922-.011 4.255-.008l4.242.005z"/>
</svg>

<svg xmlns="http://www.w3.org/2000/svg" fill="none" viewBox="0 0 12 17"><path d="M1.330 0.412 C 0.937 0.493,0.556 0.800,0.384 1.173 C 0.250 1.466,0.259 0.879,0.265 8.644 L 0.270 15.690 0.324 15.804 C 0.480 16.139,0.857 16.313,1.204 16.213 C 1.285 16.189,1.953 15.782,3.652 14.720 C 4.937 13.917,5.994 13.260,6.000 13.260 C 6.006 13.260,7.063 13.917,8.348 14.720 C 10.047 15.782,10.715 16.189,10.796 16.213 C 11.136 16.311,11.506 16.145,11.665 15.823 L 11.730 15.691 11.735 8.645 C 11.741 0.806,11.752 1.454,11.601 1.150 C 11.459 0.864,11.254 0.659,10.970 0.520 C 10.665 0.370,11.019 0.380,5.986 0.382 C 2.131 0.383,1.450 0.387,1.330 0.412 M10.255 8.007 C 10.260 13.661,10.258 14.143,10.228 14.132 C 10.210 14.125,9.322 13.574,8.255 12.907 C 7.154 12.219,6.276 11.683,6.224 11.667 C 6.108 11.632,5.892 11.632,5.776 11.667 C 5.724 11.683,4.846 12.219,3.745 12.907 C 2.678 13.574,1.790 14.125,1.772 14.132 C 1.743 14.143,1.740 13.658,1.740 8.015 C 1.740 4.645,1.746 1.881,1.753 1.873 C 1.761 1.866,3.675 1.862,6.008 1.865 L 10.250 1.870 10.255 8.007 " stroke="none" fill-rule="evenodd" fill="black"></path></svg>
